_includes/icons/ios-communication.svg

<svg fill="#666" height="50" viewBox="0 0 50 50" width="50" xmlns="http://www.w3.org/2000/svg"><path d="m19.546875 3c-9.582031 0-17.546875 6.960938-17.546875 15.714844 0 4.203125 1.878906 8.019531 4.859375 10.835937l-.09375.460938c-.671875 1.96875-2.324219 3.082031-3.304687 3.4375-.570313.203125-1.042969.511719-1.304688 1.050781-.257812.535156-.101562 1.277344.289063 1.664063.914062.917968 2.101562.828125 2.96875.835937 3.261718.039063 7.105468-1.671875 9.433593-2.835937l.027344-.011719.796875-.460938-.304687-.09375.035156.007813c1.296875.300781 2.65625.394531 3.992187.394531 8.425782 0 15.675782-5.035156 17.277344-12.28125v-.003906c.214844-.964844.328125-1.96875.328125-3 0-8.746094-7.871094-15.714844-17.453125-15.714844zm0 2c8.617188 0 15.453125 6.171875 15.453125 13.714844 0 .886719-.097656 1.746094-.28125 2.570312-1.367187 6.1875-7.691406 10.714844-15.324219 10.714844-1.234375 0-2.449218-.09375-3.535156-.34375l-.4375-.128906-1.480469.851562c-2.210937 1.105469-6.023437 2.652344-8.503906 2.621094-.339844 0-.371094-.066406-.609375-.09375 1.421875-.695312 3.0625-1.957031 3.84375-4.277344l.015625-.050781.359375-1.6875-.441406-.390625c-2.863281-2.503906-4.605469-5.976562-4.605469-9.785156 0-7.535156 6.929688-13.714844 15.546875-13.714844zm-8.546875 7v2h17v-2zm0 5v2h17v-2zm27.785156 4.195313c-.050781.320312-.085937.640625-.15625.957031-.078125.34375-.179687.679687-.28125 1.019531 4.605469 1.777344 7.636719 5.359375 7.636719 9.339844 0 2.855469-1.484375 5.523437-4.1875 7.519531l-.542969.402344.167969.65625c.539063 2.066406 2.429688 3.132812 3.738281 3.84375-2.074218.28125-6.582031-.1875-8.847656-2.867188l-.378906-.453125-.578125.117188c-.910156.179687-1.964844.269531-3.230469.269531-6.21875 0-11.269531-2.410156-13.234375-6.015625-.8125-.015625-1.570312-.070312-2.28125-.15625 1.855469 4.914063 7.820313 8.171875 15.515625 8.171875 1.152344 0 2.15625-.070312 3.058594-.207031 2.207031 2.234375 5.804687 3.203125 8.71875 3.203125.191406 0 .382812-.003906.566406-.011719 1.691406-.078125 2.792969-.46875 3.28125-1.160156.214844-.3125.289063-.679688.203125-1.039063-.167969-.714843-.824219-1.066406-1.734375-1.554687-.894531-.484375-2.070312-1.121094-2.621094-2.070313 2.800782-2.3125 4.386719-5.421875 4.386719-8.648437 0-4.90625-3.667969-9.285156-9.199219-11.316406zm-27.785156.804687v2h12v-2zm25.015625 6c-.5.703125-1.050781 1.375-1.65625 2h4.640625v-2zm-5.425781 5c-1.378906.828125-2.890625 1.503906-4.496094 2h12.90625v-2z"/></svg>

<svg xmlns="http://www.w3.org/2000/svg" viewBox="0 0 50 50" width="50" height="50" fill="#666"><path d="M 19.546875 3 C 9.964844 3 2 9.960938 2 18.714844 C 2 22.917969 3.878906 26.734375 6.859375 29.550781 L 6.765625 30.011719 C 6.09375 31.980469 4.441406 33.09375 3.460938 33.449219 C 2.890625 33.652344 2.417969 33.960938 2.15625 34.5 C 1.898438 35.035156 2.054688 35.777344 2.445313 36.164063 C 3.359375 37.082031 4.546875 36.992188 5.414063 37 C 8.675781 37.039063 12.519531 35.328125 14.847656 34.164063 L 14.875 34.152344 L 15.671875 33.691406 L 15.367188 33.597656 L 15.402344 33.605469 C 16.699219 33.90625 18.058594 34 19.394531 34 C 27.820313 34 35.070313 28.964844 36.671875 21.71875 L 36.671875 21.714844 C 36.886719 20.75 37 19.746094 37 18.714844 C 37 9.96875 29.128906 3 19.546875 3 Z M 19.546875 5 C 28.164063 5 35 11.171875 35 18.714844 C 35 19.601563 34.902344 20.460938 34.71875 21.285156 C 33.351563 27.472656 27.027344 32 19.394531 32 C 18.160156 32 16.945313 31.90625 15.859375 31.65625 L 15.421875 31.527344 L 13.941406 32.378906 C 11.730469 33.484375 7.917969 35.03125 5.4375 35 C 5.097656 35 5.066406 34.933594 4.828125 34.90625 C 6.25 34.210938 7.890625 32.949219 8.671875 30.628906 L 8.6875 30.578125 L 9.046875 28.890625 L 8.605469 28.5 C 5.742188 25.996094 4 22.523438 4 18.714844 C 4 11.179688 10.929688 5 19.546875 5 Z M 11 12 L 11 14 L 28 14 L 28 12 Z M 11 17 L 11 19 L 28 19 L 28 17 Z M 38.785156 21.195313 C 38.734375 21.515625 38.699219 21.835938 38.628906 22.152344 C 38.550781 22.496094 38.449219 22.832031 38.347656 23.171875 C 42.953125 24.949219 45.984375 28.53125 45.984375 32.511719 C 45.984375 35.367188 44.5 38.035156 41.796875 40.03125 L 41.253906 40.433594 L 41.421875 41.089844 C 41.960938 43.15625 43.851563 44.222656 45.160156 44.933594 C 43.085938 45.214844 38.578125 44.746094 36.3125 42.066406 L 35.933594 41.613281 L 35.355469 41.730469 C 34.445313 41.910156 33.390625 42 32.125 42 C 25.90625 42 20.855469 39.589844 18.890625 35.984375 C 18.078125 35.96875 17.320313 35.914063 16.609375 35.828125 C 18.464844 40.742188 24.429688 44 32.125 44 C 33.277344 44 34.28125 43.929688 35.183594 43.792969 C 37.390625 46.027344 40.988281 46.996094 43.902344 46.996094 C 44.09375 46.996094 44.285156 46.992188 44.46875 46.984375 C 46.160156 46.90625 47.261719 46.515625 47.75 45.824219 C 47.964844 45.511719 48.039063 45.144531 47.953125 44.785156 C 47.785156 44.070313 47.128906 43.71875 46.21875 43.230469 C 45.324219 42.746094 44.148438 42.109375 43.597656 41.160156 C 46.398438 38.847656 47.984375 35.738281 47.984375 32.511719 C 47.984375 27.605469 44.316406 23.226563 38.785156 21.195313 Z M 11 22 L 11 24 L 23 24 L 23 22 Z M 36.015625 28 C 35.515625 28.703125 34.964844 29.375 34.359375 30 L 39 30 L 39 28 Z M 30.589844 33 C 29.210938 33.828125 27.699219 34.503906 26.09375 35 L 39 35 L 39 33 Z"/></svg>
